img/service-size-icon__04.svg

<svg width="25" height="21" viewBox="0 0 25 21" fill="none" xmlns="http://www.w3.org/2000/svg">
<path d="M24.9797 6.52008C24.9794 6.49909 24.9781 6.47809 24.975 6.457C24.9441 6.02101 24.8848 5.60001 24.7953 5.19611C24.5447 4.06535 24.066 3.0632 23.3726 2.21769C22.1872 0.77228 20.787 0.291127 20.728 0.271401C20.5543 0.213198 20.3626 0.257143 20.2316 0.38517C16.1299 4.39381 14.82 8.09606 13.8635 10.7993C13.5991 11.5467 13.3494 12.2526 13.0764 12.8657C12.1187 15.0172 10.3371 15.7806 9.10229 15.7805C8.3832 15.7805 7.51265 15.5019 7.42544 14.7169C7.41084 14.5857 7.3438 14.466 7.2395 14.3851C7.13525 14.3042 7.00259 14.269 6.87192 14.2873C5.93267 14.4197 4.27192 14.9841 2.92309 15.6292C1.03389 16.5329 0.0513659 17.418 0.00292842 18.2601C-0.0227552 18.7068 0.120604 19.099 0.429051 19.4256C1.32036 20.3697 3.65981 20.7547 8.50386 20.7547C11.4297 20.7547 13.3399 20.2948 14.6976 19.2635C15.987 18.284 16.6854 16.8888 17.5697 15.1224C17.9798 14.3031 18.4364 13.3911 19.0133 12.4031C19.5497 13.1496 19.9487 14.5846 20.1558 16.5466C20.3585 18.4671 20.3085 20.2341 20.308 20.2517C20.3041 20.3837 20.3537 20.5117 20.4457 20.6065C20.5376 20.7012 20.664 20.7547 20.796 20.7547H21.9129C22.2982 20.7547 22.612 20.7371 22.851 20.5147C23.1151 20.2689 23.1291 19.913 23.1415 19.5989C23.2291 17.3785 23.7464 14.1179 24.6791 9.90778C24.9468 8.70011 25.0468 7.56608 24.9797 6.52008ZM18.4983 11.3618C17.7447 12.5912 17.1878 13.7036 16.6964 14.6853C14.999 18.0761 14.147 19.7782 8.50381 19.7782C5.75688 19.7782 2.00478 19.6721 1.13911 18.7553C1.01753 18.6265 0.967821 18.4911 0.97788 18.3162C0.992674 18.0588 1.50776 17.3888 3.34443 16.5103C4.52749 15.9444 5.78159 15.5213 6.5812 15.3366C6.9248 16.204 7.87422 16.7571 9.10224 16.7572C9.10215 16.7572 9.10234 16.7572 9.10224 16.7572C10.6295 16.7572 12.8205 15.8421 13.9686 13.2629C14.2571 12.6146 14.5131 11.8911 14.7841 11.1252C15.741 8.42081 16.9271 5.06828 20.685 1.31012C21.0926 1.50216 21.8981 1.95993 22.6174 2.83693C23.3798 3.76657 23.8333 4.89186 23.9772 6.20133C23.4942 6.39166 23.0555 6.59894 22.6461 6.83122C21.0276 7.74957 19.7868 9.1048 18.4983 11.3618ZM23.7257 9.69664C22.7804 13.9634 22.2556 17.2821 22.1658 19.5605C22.162 19.6574 22.1573 19.7251 22.1526 19.7724C22.1008 19.7758 22.0247 19.7782 21.913 19.7782H21.291C21.293 19.1029 21.2728 17.8309 21.1281 16.4544C21.0001 15.2376 20.8031 14.2151 20.5385 13.3906C20.832 12.9535 21.1603 12.5182 21.4751 12.1089C21.6395 11.8951 21.5996 11.5885 21.3858 11.4241C21.172 11.2597 20.8655 11.2997 20.701 11.5134C20.5021 11.7721 20.2978 12.0413 20.0984 12.3166C19.9297 11.9963 19.7435 11.7284 19.5402 11.5129C20.6761 9.5963 21.7326 8.47228 23.1279 7.68063C23.409 7.52116 23.7065 7.37423 24.0266 7.23649C24.0189 8.00299 23.9191 8.8234 23.7257 9.69664Z" fill="black"/>
<path d="M8.85217 17.9116C8.84894 17.9116 8.84567 17.9116 8.84245 17.9117C7.86227 17.9309 6.8984 17.9206 5.97784 17.8813C5.70802 17.87 5.48068 18.079 5.4692 18.3483C5.45773 18.6178 5.66681 18.8455 5.93619 18.857C6.57008 18.884 7.22355 18.8976 7.88864 18.8976C8.21047 18.8976 8.53522 18.8944 8.86144 18.888C9.13107 18.8828 9.34538 18.66 9.34011 18.3903C9.33498 18.124 9.1174 17.9116 8.85217 17.9116Z" fill="black"/>
<path d="M10.7853 18.2769C10.7715 18.0076 10.5422 17.7988 10.2727 17.8143L10.2502 17.8153C9.98081 17.8276 9.77241 18.056 9.78472 18.3253C9.79668 18.5871 10.0127 18.7913 10.2721 18.7913C10.2796 18.7913 10.2872 18.7911 10.2947 18.7908L10.3227 18.7895C10.5919 18.7758 10.799 18.5463 10.7853 18.2769Z" fill="black"/>
<path d="M22.3644 10.4097C22.177 10.2158 21.8679 10.2105 21.6739 10.3979L21.666 10.4054C21.4693 10.5898 21.4594 10.8988 21.6438 11.0956C21.7399 11.1982 21.8698 11.2499 22.0001 11.2499C22.1197 11.2499 22.2397 11.2062 22.3339 11.1179L22.3525 11.1002C22.5465 10.9128 22.5518 10.6037 22.3644 10.4097Z" fill="black"/>
</svg>

<svg width="25" height="21" fill="none" xmlns="http://www.w3.org/2000/svg"><path d="M24.98 6.52a8.656 8.656 0 00-.184-1.324c-.251-1.13-.73-2.133-1.423-2.978C22.187.772 20.787.29 20.728.27a.488.488 0 00-.496.114C16.13 4.394 14.82 8.096 13.864 10.8c-.265.748-.515 1.454-.788 2.067-.957 2.151-2.739 2.915-3.974 2.915-.719 0-1.59-.28-1.677-1.064a.488.488 0 00-.553-.43c-.94.133-2.6.697-3.949 1.342-1.89.904-2.872 1.789-2.92 2.631-.026.447.118.839.426 1.166.891.944 3.23 1.329 8.075 1.329 2.926 0 4.836-.46 6.194-1.491 1.289-.98 1.987-2.375 2.872-4.142.41-.819.866-1.73 1.443-2.719.537.747.936 2.182 1.143 4.144a31.25 31.25 0 01.152 3.705.489.489 0 00.488.503h1.117c.385 0 .699-.018.938-.24.264-.246.278-.602.29-.916.088-2.22.605-5.481 1.538-9.691.268-1.208.368-2.342.3-3.388zm-6.482 4.842c-.753 1.23-1.31 2.342-1.802 3.323-1.697 3.391-2.549 5.093-8.192 5.093-2.747 0-6.5-.106-7.365-1.023a.55.55 0 01-.161-.439c.015-.257.53-.927 2.366-1.806 1.183-.566 2.438-.989 3.237-1.173.344.867 1.293 1.42 2.521 1.42 1.527 0 3.718-.915 4.867-3.494.288-.648.544-1.372.815-2.138.957-2.704 2.143-6.057 5.901-9.815a5.7 5.7 0 011.932 1.527c.763.93 1.216 2.055 1.36 3.364-.483.19-.922.398-1.33.63-1.62.919-2.86 2.274-4.149 4.53zm5.228-1.665c-.946 4.266-1.47 7.585-1.56 9.864a3.659 3.659 0 01-.013.211 3.812 3.812 0 01-.24.006h-.622a32.086 32.086 0 00-.163-3.324c-.128-1.216-.325-2.239-.59-3.063.294-.438.622-.873.937-1.282a.488.488 0 10-.774-.596c-.199.26-.403.528-.603.804a3.626 3.626 0 00-.558-.804c1.136-1.917 2.193-3.04 3.588-3.832.281-.16.578-.307.899-.445a11.963 11.963 0 01-.301 2.46z" fill="#000"/><path d="M8.852 17.912h-.01c-.98.019-1.944.009-2.864-.03a.488.488 0 10-.042.975 45.987 45.987 0 002.925.031.488.488 0 00-.009-.976zm1.933.365a.487.487 0 00-.512-.463l-.023.001a.488.488 0 00.045.976l.028-.002a.488.488 0 00.462-.512zm11.579-7.867a.488.488 0 00-.69-.012l-.008.007a.488.488 0 00.668.713l.018-.018a.488.488 0 00.012-.69z" fill="#000"/></svg>
